X: 10726
T: Doyles Of Maulykevane, The
R: polka
M: 2/4
K: Dmajor
|:F/A/|B>A FA|dA FD/E/|FE ED/E/|FE F/G/A|
BA F>A|dA FD|EE/D/ EF|D2- D:|
|:F/G/|A2 AF/A/|d2 dc/d/|BA/B/ dB|A2 A^G/A/|
c/B/A FA|dA FD/F/|E/F/E/D/ EF|D2- D:|

